!!!!SEGMENT: pl-wtm--r-730-39-m_moniuszko-stanislaw--korowaju-moj.krn
!!!cenid: 18xx:1719
!!!COM: Moniuszko, Stanisław
!!!COM-rismid: pe30008351
!!!CDT: 1819/05/05-1872/06/04
!!!CNT: Polish
!!!OTL: Korowaju mój
!!!PDT:
!!!AGN: Secular
!!!SMS-siglum: PL-Wtm
!!!SMS-shelfmark: R 730/39/M
!!!SMS-shelfwork: W
!!!SMS-variant:
!!!SMS-altvar:
!!!NIFC-rismid: 1001099885
!!!URL-scan: http://repozytorium.nifc.pl/skany/pl-wtm-nut--r730m-1-43
!!!ONB-nifc: Skan 0043, No. 785
!!!key:
**kern	**kern	**kern	**text
*part3	*part2	*part1	*part1
*staff3	*staff2	*staff1	*staff1
*Ipiano	*Ipiano	*Isoprn	*
*I"Piano	*I"Piano	*I"Soprano	*
*clefF4	*clefG2	*clefG2	*
*k[b-e-]	*k[b-e-]	*k[b-e-]	*
*g:	*g:	*g:	*
*M2/4	*M2/4	*M2/4	*
=1	=1	=1	=1
!	!	!LO:TX:a:t=No LX.	!
[2D/ [2GG/	[2g/ [2B-/	2r	.
=2	=2	=2	=2
2D/_ 2GG/_	2g/_ 2B-/_	2r	.
=3	=3	=3	=3
*^	*	*	*
*	*2\right	*	*	*
!LO:TX:t=P:problem:all\right:global	!	!	!LO:TX:a:t=lento.	!
4.D/]	2GG\_	2g/_ 2B-_/	8g/	Ko-
.	.	.	8b-/	-ro-
.	.	.	8dd/	-wa-
8E-/	.	.	8cc#X/	-ju
=4	=4	=4	=4	=4
[2D/	2GG\_	2g/_ 2B-_/	4.dd\	mój,
.	.	.	8r	.
=5	=5	=5	=5	=5
4.D/]	2GG\_	2g/_ 2B-_/	8b-/	Ko-
.	.	.	8a/	-ro-
.	.	.	8g/	-wa-
8C#X/	.	.	16b-/LL	-ju
.	.	.	16a/JJ	.
*v	*v	*	*	*
=6	=6	=6	=6
4.D/ 4.GG/]	4.g/] 4.B-;/]	4.g;/	mój.
8r	8r	8r	.
=7	=7	=7	=7
!	!	!LO:TX:a:t=Allegretto	!
4D\	8r	8f#X/	czy
*	*tremolo	*	*
.	8f#X/ 8c/L	8g/	cię
4r	8f#X/ 8c/	8a/	bo-
.	8f#X/ 8c/J	16cc/LL	-gi
.	.	16b-/JJ	.
=8	=8	=8	=8
8G\	8r	8g/	ma-
8r	8g/ 8d/ 8B-/	8a/	-lo-
8En\	8r	8b-/	-wa-
8r	8g/ 8c/ 8B-/	8b-/	-ły
!!LO:LB:g=original
=9	=9	=9	=9
4F\	8r	8a/	czy
.	8a/ 8e-X/ 8c/L	8b-/	gwiaz-
4r	8a/ 8e-X/ 8c/	8cc\	-da-
.	8a/ 8e-X/ 8c/J	16dd\LL	-mi
.	.	16cc\JJ	.
*	*Xtremolo	*	*
=10	=10	=10	=10
8BB-/	8r	8b-\	przy-
8r	8g/ 8d/ 8B-/	8cc\	-bi-
8GG/	8r	8dd\	-ja-
8r	8b-/ 8g/ 8d/	8dd\	-ły
=11	=11	=11	=11
!	!LO:TX:b:t=ritardando.	!LO:TX:a:t=ritard&colon;	!
[2D/ [2DD/	4a/ 4f#X/ 4c/	8cc#X\	że
.	.	8dd\	tak
.	[4g/ 4B-/	8gg\	ła-
.	.	16ff\LL	-dny
.	.	16ee-\JJ	.
=12	=12	=12	=12
*	*^	*	*
*	*	*2\right	*2\right	*
2D/] 2DD/]	4g/]	2A\	[2dd\	ty.
.	4f#X/	.	.	.
=13	=13	=13	=13	=13
!	!LO:TX:t=P:problem:all\right:global	!	!	!
!	!LO:TX:a:t=lento	!	!	!
[2D/ [2GG/	4.g/	[2B-\	4dd\]	.
.	.	.	4r	.
.	8a/	.	.	.
=14	=14	=14	=14	=14
2D/_ 2GG/_	4.g/	2B-\_	2r	.
.	8b-/	.	.	.
*	*v	*v	*	*
=15:|!	=15:|!	=15:|!	=15:|!
2D/] 2GG/]	2g/ 2B-;/]	2r;	.
==	==	==	==
*-	*-	*-	*-
!!!system-decoration: {s1(s2,s3)}
!!!EED: Leszek Kubiak
!!!EST: 2021-04-21
!!!AIN: 2 piano 1 soprn
!!!ENC: Marcin Jachim
!!!END: 2021-04-01
